X:1714
L:1/8
M:3/4
K:Dmin
|: a z a z a z | g z g z g z | f z f z f z | e6 | c z c z c z | c z c z c z | =B z B z B z | A6 :: 
 D2 E2 F2 | G6 | E2 F2 G2 | A6 | F2 G2 A2 | A2 _B2 B2 | A2 =B2 ^c2 | d6 :: D2 E2 F2 | A6 | 
 =B2 B2 B2 | ^c4 d2 | D2 E2 F2 | F4 G2 | A2 =B2 ^c2 | d6 :|

